X: 1085
T: The Geese in the Bog
R:double jig
N:"collected by Mahony"
B:O'Neill's 1085
Z:Transcribed by henrik.norbeck@mailbox.swipnet.se
M:6/8
L:1/8
K:D
Add fdB|AFA AFA|Add fdB|AFA TB2A|
Add fdB|AFA DFA|gfe fdB|AFA BdB:|
AFE DFE|DFA BdB|AFD DFA|BGA BdB|
AFE DFE|DFA Bgf|gfe fdB|1 AFA BdB:|2 AFA B2d||


